SVG-Logos/OCP & RH/Other RH Logos/Red_Fedora.svg

<?xml version="1.0" encoding="UTF-8" standalone="no"?>
<!DOCTYPE svg PUBLIC "-//W3C//DTD SVG 20010904//EN"
"http://www.w3.org/TR/2001/REC-SVG-20010904/DTD/svg10.dtd">
<!-- Created with Inkscape (http://www.inkscape.org/) --><svg height="400pt" id="svg1" inkscape:version="0.38.1" sodipodi:docbase="/var/www/html/svg_gallery/svg/special" sodipodi:docname="red_fedora.svg" sodipodi:version="0.32" width="400pt" xmlns="http://www.w3.org/2000/svg" xmlns:inkscape="http://www.inkscape.org/namespaces/inkscape" xmlns:sodipodi="http://sodipodi.sourceforge.net/DTD/sodipodi-0.dtd" xmlns:xlink="http://www.w3.org/1999/xlink">
  <metadata>
    <rdf:RDF xmlns:cc="http://web.resource.org/cc/" xmlns:dc="http://purl.org/dc/elements/1.1/" xmlns:rdf="http://www.w3.org/1999/02/22-rdf-syntax-ns#">
      <cc:Work rdf:about="">
        <dc:title>Clipart by Nicu Buculei - svg_globe_green</dc:title>
        <dc:description></dc:description>
        <dc:subject>
          <rdf:Bag>
            <rdf:li></rdf:li>
            <rdf:li>people</rdf:li>
            <rdf:li>hat</rdf:li>
            <rdf:li>clothing</rdf:li>
          </rdf:Bag>
        </dc:subject>
        <dc:publisher>
          <cc:Agent rdf:about="http://www.openclipart.org">
            <dc:title>Nicu Buculei</dc:title>
          </cc:Agent>
        </dc:publisher>
        <dc:creator>
          <cc:Agent>
            <dc:title>Nicu Buculei</dc:title>
          </cc:Agent>
        </dc:creator>
        <dc:rights>
          <cc:Agent>
            <dc:title>Nicu Buculei</dc:title>
          </cc:Agent>
        </dc:rights>
        <dc:date></dc:date>
        <dc:format>image/svg+xml</dc:format>
        <dc:type rdf:resource="http://purl.org/dc/dcmitype/StillImage"/>
        <cc:license rdf:resource="http://web.resource.org/cc/PublicDomain"/>
        <dc:language>en</dc:language>
      </cc:Work>
      <cc:License rdf:about="http://web.resource.org/cc/PublicDomain">
        <cc:permits rdf:resource="http://web.resource.org/cc/Reproduction"/>
        <cc:permits rdf:resource="http://web.resource.org/cc/Distribution"/>
        <cc:permits rdf:resource="http://web.resource.org/cc/DerivativeWorks"/>
      </cc:License>
    </rdf:RDF>
  </metadata>
  <defs id="defs3">
    <linearGradient id="linearGradient585">
      <stop id="stop586" offset="0.00000000" style="stop-color:#ffffff;stop-opacity:0.175;"/>
      <stop id="stop587" offset="1.00000000" style="stop-color:#ffffff;stop-opacity:0.375;"/>
    </linearGradient>
    <linearGradient id="linearGradient579">
      <stop id="stop580" offset="0.00000000" style="stop-color:#000000;stop-opacity:0.408333;"/>
      <stop id="stop581" offset="1.00000000" style="stop-color:#000000;stop-opacity:0;"/>
    </linearGradient>
    <linearGradient id="linearGradient582" x1="0.48529410" x2="0.41176471" xlink:href="#linearGradient579" y1="0.51136363" y2="0.60227275"/>
    <linearGradient id="linearGradient584" x1="0.50735295" x2="0.32720590" xlink:href="#linearGradient585" y1="0.12280702" y2="1.09649122"/>
    <linearGradient id="linearGradient589" xlink:href="#linearGradient585"/>
  </defs>
  <sodipodi:namedview bordercolor="#666666" borderopacity="1.0" id="base" inkscape:cx="175.07995" inkscape:cy="222.79704" inkscape:pageopacity="0.0" inkscape:pageshadow="2" inkscape:window-height="700" inkscape:window-width="1063" inkscape:window-x="41" inkscape:window-y="25" inkscape:zoom="1.2279853" pagecolor="#ffffff"/>
  <g id="g847">
    <path d="M 93.858365 201.90265 C 96.771885 188.9305 99.685405 99.566837 125.90711 101.00819 C 219.13984 103.89089 315.28611 7.3204723 385.21064 222.08154 C 600.81136 322.97602 400.20197 404.05192 229.51928 396.84518 C 60.861668 389.7842 -83.138159 268.20474 93.858365 201.90265 z " id="path575" sodipodi:nodetypes="cccsc" style="font-size:12.000000;fill:#d90000;fill-opacity:0.99166697;fill-rule:evenodd;stroke:#000000;stroke-width:10.000000;stroke-linejoin:round;stroke-dasharray:none;"/>
    <path d="M 89.488075 230.72964 C 197.28842 298.47308 375.01334 256.67393 382.29714 223.52289 C 392.49448 235.05369 382.29714 266.76338 382.29714 266.76338 C 335.68077 327.30006 109.88274 314.3279 85.117791 271.08742 C 82.204269 259.55662 88.031315 235.05369 89.488075 230.72964 z " id="path576" sodipodi:nodetypes="ccccc" style="font-size:12.000000;fill-rule:evenodd;stroke:#000000;stroke-width:5.0000000;"/>
    <path d="M 130.2774 122.62843 C 157.95587 98.125489 278.86707 132.71788 294.89144 151.45542 C 300.71851 183.16511 146.30178 158.66217 130.2774 122.62843 z " id="path578" sodipodi:nodetypes="ccc" style="fill:url(#linearGradient582);fill-opacity:1;fill-rule:evenodd;stroke-width:1.0000000pt;"/>
    <path d="M 130.2774 158.66217 C 143.38826 188.93051 194.37492 259.55662 280.32384 191.8132 C 208.94254 194.6959 178.35053 186.04781 130.2774 158.66217 z " id="path583" sodipodi:nodetypes="ccc" style="fill:url(#linearGradient584);fill-opacity:1;fill-rule:evenodd;stroke-width:1.0000000pt;"/>
    <path d="M 160.86939 99.566839 C 179.8073 108.21494 299.26172 141.36597 312.37258 131.27653 C 326.9402 125.51113 324.0267 122.62843 316.74288 121.18708 C 305.08878 128.39383 284.69412 132.71788 160.86939 99.566839 z " id="path588" sodipodi:nodetypes="cccc" style="fill:url(#linearGradient589);fill-opacity:1;fill-rule:evenodd;stroke-width:1.0000000pt;"/>
    <path d="M 106.96922 246.58449 C 124.45036 255.23258 178.35053 266.76338 198.7452 268.20474 C 213.31281 278.29416 206.029 294.14902 200.20197 305.67982 C 160.8694 305.67982 115.70979 295.59036 104.0557 282.6182 C 96.771885 269.64608 99.685405 259.55662 106.96922 246.58449 z " id="path590" sodipodi:nodetypes="ccccc" style="font-size:12.000000;fill:#ffffff;fill-opacity:0.31666699;fill-rule:evenodd;stroke:#000000;stroke-width:1.8783400pt;"/>
  </g>
</svg>

<svg xmlns="http://www.w3.org/2000/svg" xmlns:xlink="http://www.w3.org/1999/xlink" width="400pt" height="400pt"><defs><linearGradient id="b"><stop offset="0" style="stop-color:#fff;stop-opacity:.175"/><stop offset="1" style="stop-color:#fff;stop-opacity:.375"/></linearGradient><linearGradient id="a"><stop offset="0" style="stop-color:#000;stop-opacity:.408333"/><stop offset="1" style="stop-color:#000;stop-opacity:0"/></linearGradient><linearGradient xlink:href="#a" id="c" x1=".485" x2=".412" y1=".511" y2=".602"/><linearGradient xlink:href="#b" id="d" x1=".507" x2=".327" y1=".123" y2="1.096"/><linearGradient xlink:href="#b" id="e"/></defs><path d="M93.858 201.903c2.914-12.972 5.827-102.336 32.05-100.895C219.14 103.891 315.285 7.32 385.21 222.082c215.6 100.894 14.991 181.97-155.692 174.763-168.657-7.06-312.657-128.64-135.66-194.942z" style="font-size:12;fill:#d90000;fill-opacity:.99166697;fill-rule:evenodd;stroke:#000;stroke-width:10;stroke-linejoin:round;stroke-dasharray:none"/><path d="M89.488 230.73c107.8 67.743 285.525 25.944 292.81-7.207 10.196 11.53 0 43.24 0 43.24-46.617 60.537-272.415 47.565-297.18 4.324-2.914-11.53 2.913-36.033 4.37-40.357z" style="font-size:12;fill-rule:evenodd;stroke:#000;stroke-width:5"/><path d="M130.277 122.628c27.679-24.503 148.59 10.09 164.614 28.827 5.828 31.71-148.59 7.207-164.614-28.827z" style="fill:url(#c);fill-opacity:1;fill-rule:evenodd;stroke-width:1pt"/><path d="M130.277 158.662c13.111 30.269 64.098 100.895 150.047 33.151-71.381 2.883-101.973-5.765-150.047-33.15z" style="fill:url(#d);fill-opacity:1;fill-rule:evenodd;stroke-width:1pt"/><path d="M160.87 99.567c18.937 8.648 138.392 41.799 151.503 31.71 14.567-5.766 11.654-8.649 4.37-10.09-11.654 7.207-32.049 11.53-155.874-21.62z" style="fill:url(#e);fill-opacity:1;fill-rule:evenodd;stroke-width:1pt"/><path d="M106.97 246.584c17.48 8.649 71.38 20.18 91.775 21.62 14.568 10.09 7.284 25.945 1.457 37.476-39.333 0-84.492-10.09-96.146-23.062-7.284-12.972-4.37-23.061 2.913-36.034z" style="font-size:12;fill:#fff;fill-opacity:.31666699;fill-rule:evenodd;stroke:#000;stroke-width:1.87834pt"/></svg>
